X:1
T:Title
%%score [ 1 2 3 4 ]
L:1/8
Q:1/4=120
M:none
K:Eb
V:1 treble nm="S."
V:2 treble nm="A."
V:3 treble-8 nm="T."
V:4 bass nm="B."
V:1
"^Antiphon to the Benedictus at Lauds""^for the feast of Corpus Christi" B6 E2 B4 c3 d(edc"^Ego sum panis vivus"B c4) B4 z4 z2 G4"^William Byrd""^(1543-1623)" A2 G4 | %1
w: E- go sum pa- nis vi * * * * vus, e- go sum|
 z2 A3 B (c3 B B4 =A2) B2 d3 d (e4 d2) e4 z2 E4 G2 | %2
w: pa- nis vi * * * vus, pa- nis vi * vus, qui de|
 B2 F2 z2 d2 (B3 A G3 FG>FEG) F4 z2 B4 d2 f4 e2 | d2 (c3 BA>GFA) G4 z4 z2 c2 c2 =AB c3 c | %4
w: cae- lo de- scen * * * * * * * di, qui de cae- lo|de- scen * * * * * di: si quis man- du- ca- ve-|
 F4 z2 f2 f2 de f3 f B2 e2 d2 (c4 B=A B2 G2) A4 z2 c3 d | %5
w: \-rit, si quis man- du- ca- ve- rit ex hoc pa * * * * ne, vi- vet|
 e4 d2 c4 d4 z2 c3 d e4 B2 f4 F4 z2 f4 d2 e2 c2 z2 d4 B2 | %6
w: in ae- ter- num, vi- vet in ae- ter- num. Al- le- lu- ia, Al- le-|
 c2 =A2 z2 B4 G2 _A2 F2 G3 A (B2 c2) B4 =A3 B (c2 d2) c4 | %7
w: \-lu- ia, Al- le- lu- ia, Al- le- lu * ia, Al- le- lu * ia,|
 d3 e (f2 g2) f2 B3 c (d4 B2) =A c2 B(!courtesy!=AG/A/ B4 A2) B8 | %8
w: Al- le- lu * ia, Al- le- lu * ia, Al- le- lu * * * * ia.|
V:2
 z8 z8 G6 A2 G4 E3 F(GFED E4) E B,2 C | %1
w: E- go sum pa- nis vi * * * * vus, pa- nis|
 (_DCA,B, C=D E2) B,2 (ED/E/) F4 D2 F2 B4 F2 F2 c2 B2 G2 (G3 F) E2 | %2
w: vi * * * * * * vus, vi * * vus, qui de cae- lo, de cae- lo de- scen * di,|
 F4 (D>CB,C D2) B,2 z2 E2 B,2 B4 F2 G2 (F2 E D2 C/B,/ C2) B,2 z2 | %3
w: de- scen * * * * di, qui de cae- lo de- scen * * * * * di,|
 B2 (A2 G3 F/E/ F4) =E2 z2 F2 F2 !courtesy!=EE F3 F C4 | %4
w: de- scen * * * * di: si quis man- du- ca- ve- rit,|
 z2 B2 B2 =AA B3 B F2 F2 G4 (F3 E/D/CF, F4 =E2) F4 z2 _A3 B | %5
w: si quis man- du- ca- ve- rit ex hoc pa * * * * * * ne, vi- vet|
 c3 B (B4 =A2) B4 z2 _A3 B c3 (B B2 =AG/A/ B4 !courtesy!=A2) B4 B4 G2 _A2 F4 G4 | %6
w: in ae- ter * num, vi- vet in ae- ter * * * * * num. Al- le- lu- ia, Al-|
 E2 F2 D4 E4 C2 D2 B,2 G4 E2 F8 F8 | z4 D3 E (F2 G2) F4 B,3 G, (=A,2 B,2) C2 DB, F4 D8 | %8
w: \-le- lu- ia, Al- le- lu- ia, Al- le- lu- ia,|Al- le- lu * ia, Al- le- lu * ia, Al- le- lu- ia.|
V:3
 z8 z8 e6 A2 e4 c3 d(edcB c4) B4 | z4 c3 d(edcB c4) B8 z4 z2 E4 B2 e4 | %2
w: E- go sum pa- nis vi * * * * vus,|pa- nis vi * * * * vus, qui de cae-|
 d2 d2 (B3 A G3 F) E2 E4 G2 B4 G2 d2 B4 =A2 z2 c2 | %3
w: \-lo de- scen * * * di, qui de cae- lo de- scen- di, de|
 f4 e2 c2 (c/B/A/B/ c4) F4 =AB c3 c F2 !courtesy!=A4 | %4
w: cae- lo de- scen * * * * di: man- du- ca- ve- rit, si|
 d4 c2 c2 d3 c B2 !courtesy!_A2 G2 (B4 =AB c2 d2) B4 z2 c3 F f4 | %5
w: quis man- du- ca- ve- rit, ex hoc pa * * * * ne, vi- vet in|
 e2 f8 B4 z4 z2 c3 d e4 d2 c4 d8 z2 f4 (d2 Bc/d/ed) | %6
w: ae- ter- num, vi- vet in ae- ter- num. Al- le- lu * * * *|
 c4 B4 G2 (cB!courtesy!_AG/A/BA) G4 e4 d4 (c6 B3 =A/G/ A2) | B8 z4 d3 e (f2 g2) f2 e4 d2 c4 B8 | %8
w: \-ia, Al- le- lu * * * * * * ia, Al- le- lu * * * *|\-ia, Al- le- lu * ia, Al- le- lu- ia.|
V:4
 z8 z8 z8 z8 E,6 A,,2 E,4 | F,3 G, (A,G,E,F, G,4) F,4 z2 B,,4 E,2 B,4 A,2 G,2 (E,3 D, C,4) | %2
w: E- go sum|pa- nis vi * * * * vus, qui de cae- lo de- scen * *|
 B,,8 z2 E,4 B,2 E4 D2 D2 (B,3 A, G,4) F,2 (D,2"^__" C,2) | %3
w: \-di, qui de cae- lo de- scen * * di, de- scen|
"^____""^This edition ? Andrew Sims 2005" (B,,2 C,8) z2 C2 C2 =A,B, C3 C F,4 z2 F,2 | %4
w: * di: si quis man- du- ca- ve- rit, si|
 F,2 D,E, F,3 F, B,,4 D,4 E,4 (F,3 G, =A,2 B,2 G,4) F,8 z2 | %5
w: quis man- du- ca- ve- rit ex hoc pa * * * * ne,|
 z8 z4 B,4 F,2 A,6 G,2 F,8 B,,8 z4 B,6 G,2 | %6
w: vi- vet in ae- ter- num. Al- le-|
 A,2 F,2 G,6 E,2 F,2 D,2 E,6 C,2 D,2 B,,2 F,3 G, (=A,2 B,2) F,4 | %7
w: \-lu- ia, Al- le- lu- ia, Al- le- lu- ia, Al- le- lu * ia,|
"^I am the living bread, which ascended into heaven:""^if anyone eats of this bread, he will have eternal life. Alleluia." z4 B,,3 C, (D,2 E,2) B,,4 D,3 E, (F,2 G,2 F,8) B,,8 | %8
w: Al- le- lu * ia, Al- le- lu * * ia.|

